X:1
T:Shiplake, 10.10.10.10
T:Francis Everard William Hulton, 1889
T:Shiplake, 10.10.10.10
T:Public Domain
C:Francis Everard William Hulton, 1889
Z:Public Domain
%%score ( 1 2 ) ( 3 4 )
L:1/8
M:4/4
K:D
V:1 treble 
V:2 treble 
V:3 bass 
V:4 bass 
V:1
 [Dd]4 [Ec]2 [^EB]2 | [FA]4 D4 | [DE]2 [DF]2 [DA]2 [EG]2 | [A,F]8 | [A,F]4 [B,E]2 [CA]2 | %5
 [DA]4 [DF]4 | [DB]2 [EA]2 [FA]2 [^Gd]2 | (A4 G4) | [Fd]4 [^Ec]2 [^GB]2 | [FA]4 [GA]4 | %10
 [FA]2 [Ad]2 [^Gc]2 [GB]2 | A8 | [DA]4 [CG]2 [DF]2 | [DB]4 [Ec]4 | [Dd]2 D2 [CF]2 [CE]2 | D8 |] %16
V:2
 x8 | x4 D4 | x8 | x8 | x8 | x8 | x8 | c8 | x8 | x8 | x8 | A8 | x8 | x8 | x2 D2 x4 | D8 |] %16
V:3
 [D,F,]4 [D,G,]2 [D,^G,]2 | [D,A,]4 [F,A,]4 | [G,B,]2 [F,A,]2 [E,B,]2 [A,,C]2 | [D,D]8 | %4
 [A,,C]4 [G,B,]2 [G,A,]2 | [F,A,]4 [D,A,]4 | [G,B,]2 [G,C]2 [F,D]2 [B,,B,D]2 | [A,,A,E]8 | %8
 (D2 B,2) [C,^G,]2 [^E,C]2 | [F,C]4 [E,C]4 | [D,D]2 [D,F]2 [E,E]2 [E,D]2 | (A,4 G,4) | %12
 [F,D]4 [E,A,]2 [D,A,]2 | [G,B,]4 [E,G,]4 | [B,,F,]2 [B,,G,]2 [A,,A,]2 [A,,G,]2 | [D,F,]8 |] %16
V:4
 x8 | x8 | x8 | x8 | x8 | x8 | x8 | x8 | B,,4 x4 | x8 | x8 | C8 | x8 | x8 | x8 | x8 |] %16

